X:1003
T:Scale Navigation B
O:Kevin Fraser
Z:Kevin Fraser
Q:1/4=120
K:HP
M:4/4
L:1/4
R:March
V:gstem=up stem=down
%%MIDI gracedivider 4
%%MIDI gchord
%%MIDI beatstring
[| B  G  B  A  |  B  c  B  d  |  B  e  B  f  |  B  g   B  a  |  a  B  g   B  |  f   B  e  B |  d  B  c  B  |  A  B   G  B  |] 
w: B  G  B  A  |  B  c  B  d  |  B  e  B  f  |  B  g   B  a  |  a  B  g   B  |  f   B  e  B |  d  B  c  B  |  A  B   G  B  :|
w: io em io en |  io o  io a  |  io e  io ve |  io di  io I  |  I  io di  io |  ve  io e  io|  a  io o  io |  en io  em io :| 


